storage/app/icons/phosphoricons/duotone/armchair-duotone.svg

<svg xmlns="http://www.w3.org/2000/svg" fill="currentColor" viewBox="0 0 256 256"><path d="M240 128a32 32 0 0 1-32 32v40a8 8 0 0 1-8 8H56a8 8 0 0 1-8-8v-40a32 32 0 0 1 0-64V72a32 32 0 0 1 32-32h96a32 32 0 0 1 32 32v24a32 32 0 0 1 32 32" opacity=".2"/><path d="M216 88.8V72a40 40 0 0 0-40-40H80a40 40 0 0 0-40 40v16.8a40 40 0 0 0 0 78.4V200a16 16 0 0 0 16 16h144a16 16 0 0 0 16-16v-32.8a40 40 0 0 0 0-78.4M80 48h96a24 24 0 0 1 24 24v16.8a40.07 40.07 0 0 0-32 39.2H88a40.07 40.07 0 0 0-32-39.2V72a24 24 0 0 1 24-24m128.39 104H208a8 8 0 0 0-8 8v40H56v-40a8 8 0 0 0-8-8h-.39A24 24 0 1 1 72 128v40a8 8 0 0 0 16 0v-24h80v24a8 8 0 0 0 16 0v-40a24 24 0 1 1 24.39 24"/></svg>

<svg xmlns="http://www.w3.org/2000/svg" viewBox="0 0 256 256" fill="currentColor"><path d="M240,128a32,32,0,0,1-32,32v40a8,8,0,0,1-8,8H56a8,8,0,0,1-8-8V160a32,32,0,0,1,0-64V72A32,32,0,0,1,80,40h96a32,32,0,0,1,32,32V96A32,32,0,0,1,240,128Z" opacity="0.2"/><path d="M216,88.8V72a40,40,0,0,0-40-40H80A40,40,0,0,0,40,72V88.8a40,40,0,0,0,0,78.4V200a16,16,0,0,0,16,16H200a16,16,0,0,0,16-16V167.2a40,40,0,0,0,0-78.4ZM80,48h96a24,24,0,0,1,24,24V88.8A40.07,40.07,0,0,0,168,128H88A40.07,40.07,0,0,0,56,88.8V72A24,24,0,0,1,80,48ZM208.39,152H208a8,8,0,0,0-8,8v40H56V160a8,8,0,0,0-8-8h-.39A24,24,0,1,1,72,128v40a8,8,0,0,0,16,0V144h80v24a8,8,0,0,0,16,0V128a24,24,0,1,1,24.39,24Z"/></svg>
